icons/discoball/discoball-2.svg

<svg width="14" height="14" viewBox="0 0 14 14" fill="none"
    xmlns="http://www.w3.org/2000/svg">
    <path d="M8.05176 1.00098C10.7893 1.02874 13 3.25585 13 6C13 7.18981 12.5836 8.28157 11.8896 9.13965C11.9606 8.77054 12 8.38982 12 8C12 7.62216 11.9623 7.253 11.8955 6.89453C11.925 6.76508 11.9511 6.63392 11.9678 6.5H11.8115C11.7223 6.15327 11.6008 5.8195 11.4541 5.5H11.9678C11.9454 5.32024 11.9117 5.14419 11.8662 4.97266L11.4385 4.87305C11.3174 4.84669 11.1958 4.82238 11.0742 4.79883C10.604 4.05498 9.9749 3.42228 9.23438 2.94727C9.21209 2.83128 9.19018 2.71515 9.16504 2.59961L9.05762 2.1416C8.88863 2.09539 8.71521 2.05995 8.53809 2.03613V2.5625C8.21897 2.41329 7.8848 2.29091 7.53809 2.19922V2.02637C7.39019 2.04337 7.24507 2.06984 7.10254 2.10254C6.74506 2.03613 6.37672 2 6 2C5.60991 2 5.22872 2.03828 4.85938 2.10938C5.71777 1.41559 6.81033 1 8 1H8.03809C8.04267 1 8.04721 1.00085 8.05176 1.00098ZM10.1953 2.65723C10.2627 2.99315 10.3203 3.33042 10.3672 3.66895C10.7008 3.71512 11.0332 3.77179 11.3643 3.83789C11.0612 3.36734 10.6627 2.96477 10.1953 2.65723Z" fill="red"/>
    <path d="M6.05176 3.00098C8.78934 3.02874 11 5.25585 11 8C11 10.7441 8.78933 12.9703 6.05176 12.998C6.0472 12.9982 6.04267 13 6.03809 13C6.03527 13 6.0321 12.9991 6.0293 12.999C6.01954 12.9991 6.00977 13 6 13C3.23858 13 1 10.7614 1 8C1 5.23858 3.23858 3 6 3H6.03809C6.04267 3 6.04721 3.00085 6.05176 3.00098ZM4.73242 10.4395C4.78204 10.7611 4.84175 11.0815 4.91113 11.4004L5.02344 11.8789C5.19108 11.921 5.36279 11.9525 5.53809 11.9727V10.4844C5.26925 10.4765 5.00075 10.4601 4.73242 10.4395ZM7.34082 10.4395C7.07346 10.46 6.80595 10.4765 6.53809 10.4844V11.9629C6.71526 11.9391 6.88859 11.9037 7.05762 11.8574C7.1742 11.3883 7.26739 10.915 7.34082 10.4395ZM2.62402 10.1436C2.94656 10.6505 3.37935 11.0798 3.88965 11.3975C3.81735 11.0432 3.75648 10.6873 3.70703 10.3301C3.34453 10.2799 2.98351 10.2173 2.62402 10.1436ZM9.36426 10.1611C9.03316 10.2272 8.70081 10.2839 8.36719 10.3301C8.3204 10.6682 8.26357 11.0052 8.19629 11.3408C8.66318 11.0333 9.06151 10.6314 9.36426 10.1611ZM4.55469 8.5C4.56432 8.80896 4.58279 9.11763 4.61035 9.42578C4.91918 9.45348 5.22844 9.47271 5.53809 9.48242V8.5H4.55469ZM6.53809 9.48242C6.84706 9.47278 7.15571 9.45433 7.46387 9.42676C7.49153 9.11826 7.5108 8.80932 7.52051 8.5H6.53809V9.48242ZM8.52148 8.5C8.51362 8.76847 8.49912 9.03673 8.47852 9.30469C8.79964 9.25511 9.12008 9.19624 9.43848 9.12695L9.86621 9.02637C9.91155 8.85512 9.94539 8.67944 9.96777 8.5H8.52148ZM2.03223 8.5C2.05387 8.67352 2.08479 8.84389 2.12793 9.00977C2.13811 9.01165 2.14899 9.01211 2.15918 9.01465C2.63465 9.13351 3.11453 9.22823 3.59668 9.30273C3.57612 9.03541 3.56062 8.76783 3.55273 8.5H2.03223ZM8.47754 6.69434C8.49825 6.96263 8.51256 7.2312 8.52051 7.5H9.96777C9.94535 7.32024 9.91167 7.14419 9.86621 6.97266L9.43848 6.87305C9.11972 6.80368 8.79904 6.74395 8.47754 6.69434ZM3.59668 6.69629C3.11448 6.77079 2.6347 6.86648 2.15918 6.98535C2.14905 6.98788 2.13806 6.98738 2.12793 6.98926C2.08468 7.15543 2.05391 7.32616 2.03223 7.5H3.55273C3.56063 7.23184 3.57608 6.96394 3.59668 6.69629ZM5.53809 6.5166C5.22846 6.52631 4.91916 6.54554 4.61035 6.57324C4.5827 6.8817 4.56439 7.19072 4.55469 7.5H5.53809V6.5166ZM6.53809 7.5H7.52051C7.51085 7.19035 7.49153 6.88109 7.46387 6.57227C7.15573 6.5447 6.84704 6.52624 6.53809 6.5166V7.5ZM3.88965 4.60156C3.37939 4.91909 2.9466 5.34871 2.62402 5.85547C2.98349 5.78174 3.34455 5.71914 3.70703 5.66895C3.7565 5.31176 3.81733 4.95583 3.88965 4.60156ZM8.19531 4.65723C8.26273 4.99315 8.32027 5.33042 8.36719 5.66895C8.70079 5.71512 9.03318 5.77179 9.36426 5.83789C9.06122 5.36734 8.66266 4.96477 8.19531 4.65723ZM5.53809 4.02637C5.36284 4.04652 5.19105 4.07806 5.02344 4.12012V4.12109C4.90447 4.59695 4.80794 5.07702 4.7334 5.55957C5.00139 5.53894 5.26959 5.52255 5.53809 5.51465V4.02637ZM6.53809 5.51465C6.80626 5.52255 7.07413 5.53897 7.3418 5.55957C7.29221 5.23838 7.23433 4.91806 7.16504 4.59961L7.05762 4.1416C6.88863 4.09539 6.71521 4.05995 6.53809 4.03613V5.51465Z" fill="red"/>
    <path d="M2 0.5C2.03171 0.5 2.06269 0.503148 2.09277 0.508789C2.10512 0.511106 2.1169 0.515348 2.12891 0.518555C2.14718 0.523431 2.16523 0.528327 2.18262 0.535156C2.19475 0.539925 2.20613 0.54609 2.21777 0.551758C2.23346 0.559382 2.24895 0.567011 2.26367 0.576172C2.27483 0.583127 2.28535 0.590846 2.2959 0.598633C2.31067 0.609521 2.32443 0.621381 2.33789 0.633789C2.34672 0.641939 2.35506 0.650419 2.36328 0.65918C2.37503 0.671679 2.38606 0.684586 2.39648 0.698242C2.40499 0.7094 2.41334 0.720556 2.4209 0.732422C2.43243 0.750491 2.442 0.769513 2.45117 0.789062C2.45413 0.795385 2.45824 0.801154 2.46094 0.807617C2.47324 0.837022 2.48372 0.867474 2.49023 0.899414L2.50977 1.10059C2.54966 1.29608 2.70392 1.45034 2.89941 1.49023L3.10059 1.50977C3.1321 1.5162 3.16236 1.52602 3.19141 1.53809C3.19787 1.54077 3.20364 1.54491 3.20996 1.54785C3.22952 1.55696 3.24852 1.56665 3.2666 1.57812C3.27848 1.58565 3.28961 1.59407 3.30078 1.60254C3.31446 1.61293 3.32732 1.62403 3.33984 1.63574C3.34863 1.64394 3.35706 1.65233 3.36523 1.66113C3.37768 1.67457 3.38946 1.68838 3.40039 1.70312C3.40821 1.71365 3.41586 1.72421 3.42285 1.73535C3.43206 1.75006 3.4396 1.76557 3.44727 1.78125C3.45297 1.79289 3.45906 1.80428 3.46387 1.81641C3.47075 1.8338 3.47554 1.85183 3.48047 1.87012C3.48371 1.88214 3.48788 1.89389 3.49023 1.90625C3.49601 1.93668 3.5 1.9679 3.5 2C3.5 2.03177 3.4959 2.06264 3.49023 2.09277C3.48791 2.10514 3.48369 2.11688 3.48047 2.12891C3.47557 2.14721 3.47072 2.1652 3.46387 2.18262C3.45908 2.19477 3.45295 2.20611 3.44727 2.21777C3.43962 2.23348 3.43204 2.24894 3.42285 2.26367C3.41587 2.27484 3.4082 2.28534 3.40039 2.2959C3.38947 2.31068 3.37768 2.32442 3.36523 2.33789C3.35706 2.34672 3.34863 2.35506 3.33984 2.36328C3.32731 2.37503 3.31447 2.38606 3.30078 2.39648C3.2896 2.40498 3.27849 2.41335 3.2666 2.4209C3.2485 2.43241 3.22955 2.44203 3.20996 2.45117C3.20363 2.45412 3.19788 2.45825 3.19141 2.46094C3.16225 2.47307 3.13222 2.48378 3.10059 2.49023L2.89941 2.50977C2.70392 2.54966 2.54966 2.70392 2.50977 2.89941L2.49023 3.10059C2.48378 3.13222 2.47307 3.16225 2.46094 3.19141C2.45825 3.19788 2.45412 3.20363 2.45117 3.20996C2.44203 3.22955 2.43241 3.2485 2.4209 3.2666C2.41335 3.27849 2.40498 3.2896 2.39648 3.30078C2.38606 3.31447 2.37503 3.32731 2.36328 3.33984C2.35506 3.34863 2.34672 3.35706 2.33789 3.36523C2.32442 3.37768 2.31068 3.38947 2.2959 3.40039C2.28534 3.4082 2.27484 3.41587 2.26367 3.42285C2.24894 3.43204 2.23348 3.43962 2.21777 3.44727C2.20611 3.45295 2.19477 3.45908 2.18262 3.46387C2.1652 3.47072 2.14721 3.47557 2.12891 3.48047C2.11688 3.48369 2.10514 3.48791 2.09277 3.49023C2.06264 3.4959 2.03177 3.5 2 3.5C1.9679 3.5 1.93668 3.49601 1.90625 3.49023C1.89389 3.48788 1.88214 3.48371 1.87012 3.48047C1.85183 3.47554 1.8338 3.47075 1.81641 3.46387C1.80428 3.45906 1.79289 3.45297 1.78125 3.44727C1.76557 3.4396 1.75006 3.43206 1.73535 3.42285C1.72421 3.41586 1.71365 3.40821 1.70312 3.40039C1.68838 3.38946 1.67457 3.37768 1.66113 3.36523C1.65233 3.35706 1.64394 3.34863 1.63574 3.33984C1.62403 3.32732 1.61293 3.31446 1.60254 3.30078C1.59407 3.28961 1.58565 3.27848 1.57812 3.2666C1.56665 3.24852 1.55696 3.22952 1.54785 3.20996C1.54491 3.20364 1.54077 3.19787 1.53809 3.19141C1.52602 3.16236 1.5162 3.1321 1.50977 3.10059L1.49023 2.89941C1.45034 2.70392 1.29608 2.54966 1.10059 2.50977L0.899414 2.49023C0.867474 2.48372 0.837022 2.47324 0.807617 2.46094C0.801154 2.45824 0.795385 2.45413 0.789062 2.45117C0.769513 2.442 0.750491 2.43243 0.732422 2.4209C0.720556 2.41334 0.7094 2.40499 0.698242 2.39648C0.684586 2.38606 0.671679 2.37503 0.65918 2.36328C0.650419 2.35506 0.641939 2.34672 0.633789 2.33789C0.621381 2.32443 0.609521 2.31067 0.598633 2.2959C0.590846 2.28535 0.583127 2.27483 0.576172 2.26367C0.567011 2.24895 0.559382 2.23346 0.551758 2.21777C0.54609 2.20613 0.539925 2.19475 0.535156 2.18262C0.528327 2.16523 0.523431 2.14718 0.518555 2.12891C0.515348 2.1169 0.511106 2.10512 0.508789 2.09277C0.503148 2.06269 0.5 2.03171 0.5 2C0.5 1.96796 0.503032 1.93662 0.508789 1.90625C0.511129 1.89391 0.515326 1.88212 0.518555 1.87012C0.523462 1.85186 0.528299 1.83377 0.535156 1.81641C0.539944 1.80429 0.546073 1.79288 0.551758 1.78125C0.559402 1.76559 0.566995 1.75004 0.576172 1.73535C0.583138 1.72422 0.590837 1.71365 0.598633 1.70312C0.60953 1.68839 0.621376 1.67456 0.633789 1.66113C0.641941 1.65233 0.65042 1.64394 0.65918 1.63574C0.671676 1.62402 0.684594 1.61293 0.698242 1.60254C0.709392 1.59406 0.720567 1.58566 0.732422 1.57812C0.750472 1.56663 0.769538 1.55699 0.789062 1.54785C0.795376 1.5449 0.801164 1.54078 0.807617 1.53809C0.836917 1.52585 0.8676 1.51626 0.899414 1.50977L1.10059 1.49023C1.29608 1.45034 1.45034 1.29608 1.49023 1.10059L1.50977 0.899414C1.51626 0.8676 1.52585 0.836917 1.53809 0.807617C1.54078 0.801164 1.5449 0.795376 1.54785 0.789062C1.55699 0.769538 1.56663 0.750472 1.57812 0.732422C1.58566 0.720567 1.59406 0.709392 1.60254 0.698242C1.61293 0.684594 1.62402 0.671676 1.63574 0.65918C1.64394 0.65042 1.65233 0.641941 1.66113 0.633789C1.67456 0.621376 1.68839 0.60953 1.70312 0.598633C1.71365 0.590837 1.72422 0.583138 1.73535 0.576172C1.75004 0.566995 1.76559 0.559402 1.78125 0.551758C1.79288 0.546073 1.80429 0.539944 1.81641 0.535156C1.83377 0.528299 1.85186 0.523462 1.87012 0.518555C1.88212 0.515326 1.89391 0.511129 1.90625 0.508789C1.93662 0.503032 1.96796 0.5 2 0.5Z" fill="green"/>
</svg>

<svg xmlns="http://www.w3.org/2000/svg" width="14" height="14" fill="none" viewBox="0 0 14 14"><path fill="red" d="M8.052 1.001A5 5 0 0 1 11.89 9.14c.07-.37.11-.75.11-1.14 0-.378-.038-.747-.104-1.105q.045-.195.072-.395h-.156a6 6 0 0 0-.358-1h.514a4 4 0 0 0-.102-.527l-.428-.1q-.18-.038-.364-.074a6 6 0 0 0-1.84-1.852q-.032-.174-.069-.347l-.107-.458a4 4 0 0 0-.52-.106v.527a6 6 0 0 0-1-.364v-.173a4 4 0 0 0-.435.077 6 6 0 0 0-2.244.006A4.98 4.98 0 0 1 8 1h.038zm2.143 1.656q.102.504.172 1.012.5.07.997.169a4 4 0 0 0-1.169-1.18"/><path fill="red" d="M6.052 3.001a5 5 0 0 1 0 9.997L6.038 13l-.009-.001L6 13A5 5 0 0 1 6 3h.038zm-1.32 7.439q.075.482.18.96l.111.479q.252.063.515.094v-1.489a17 17 0 0 1-.806-.044m2.609 0q-.402.032-.803.044v1.479q.265-.037.52-.106.174-.704.283-1.417m-4.717-.296a4 4 0 0 0 1.266 1.254q-.11-.532-.183-1.068-.543-.076-1.083-.186m6.74.017q-.495.1-.997.17a17 17 0 0 1-.17 1.01c.466-.308.865-.71 1.167-1.18M4.554 8.5q.015.464.056.926.464.041.928.056V8.5zm1.984.982q.465-.015.926-.055.042-.463.057-.927h-.983zM8.521 8.5a17 17 0 0 1-.042.805q.48-.075.96-.178l.427-.1a4 4 0 0 0 .102-.527zm-6.489 0q.032.261.096.51l.031.005q.715.177 1.438.288-.031-.402-.044-.803zm6.446-1.806q.03.403.043.806h1.447a4 4 0 0 0-.102-.527l-.428-.1q-.478-.105-.96-.179m-4.881.002a16 16 0 0 0-1.438.29l-.031.003a4 4 0 0 0-.096.511h1.52q.013-.402.045-.804m1.941-.18q-.465.016-.928.057-.041.464-.055.927h.983zm1 .984h.983q-.016-.465-.057-.928a16 16 0 0 0-.926-.055zM3.89 4.602a4 4 0 0 0-1.266 1.253q.54-.11 1.083-.186.074-.536.183-1.067m4.305.055q.102.504.172 1.012.5.07.997.169a4 4 0 0 0-1.169-1.18m-2.657-.63q-.263.03-.515.093v.001q-.178.714-.29 1.439a17 17 0 0 1 .805-.045zm1 1.488q.402.013.804.045-.074-.483-.177-.96l-.107-.458a4 4 0 0 0-.52-.106z"/><path fill="green" d="M2 .5q.048 0 .093.009l.036.01q.027.006.054.016l.035.017a.5.5 0 0 1 .12.082.5.5 0 0 1 .113.155l.01.019q.019.044.03.091l.019.202c.04.195.194.35.39.39l.2.019a.5.5 0 0 1 .091.028l.019.01a.5.5 0 0 1 .213.187q.014.022.024.046l.017.035q.01.027.016.054l.01.036a.5.5 0 0 1 0 .187q-.003.018-.01.036l-.016.054-.017.035a.5.5 0 0 1-.082.12.5.5 0 0 1-.155.113l-.019.01a.5.5 0 0 1-.09.03l-.202.019a.5.5 0 0 0-.39.39l-.019.2a.5.5 0 0 1-.03.091l-.009.019a.5.5 0 0 1-.233.237l-.035.017-.054.016-.036.01a.5.5 0 0 1-.187 0q-.018-.003-.036-.01-.027-.006-.054-.016l-.035-.017-.046-.024a.5.5 0 0 1-.187-.213l-.01-.019a.5.5 0 0 1-.028-.09l-.02-.202a.5.5 0 0 0-.39-.39L.9 2.49a.5.5 0 0 1-.092-.03l-.019-.009a.5.5 0 0 1-.213-.187l-.024-.046-.017-.035-.016-.054q-.007-.018-.01-.036a.5.5 0 0 1 0-.187l.01-.036q.006-.027.016-.054l.017-.035a.5.5 0 0 1 .082-.12.5.5 0 0 1 .155-.113l.019-.01a.5.5 0 0 1 .091-.028l.202-.02a.5.5 0 0 0 .39-.39L1.51.9a.5.5 0 0 1 .028-.092l.01-.019a.5.5 0 0 1 .187-.213l.046-.024.035-.017q.027-.01.054-.016.018-.007.036-.01A.5.5 0 0 1 2 .5"/></svg>
